Numix-Circle/48x48/apps/preferences-desktop-keyboard-shortcuts.svg

<svg xmlns="http://www.w3.org/2000/svg" xmlns:xlink="http://www.w3.org/1999/xlink" width="48" height="48">
 <defs>
  <clipPath>
   <rect width="42" x="307" y="223" rx="9" height="42" transform="rotate(90)" fill="url(#3)" color="#bebebe"/>
  </clipPath>
  <clipPath>
   <rect width="240" x="24" y="36" rx="50" height="240" fill="#986767" color="#bebebe"/>
  </clipPath>
  <clipPath>
   <rect width="16" x="432" y="116" rx="2" height="16" opacity="0.2" fill="#6d6d6d" color="#bebebe"/>
  </clipPath>
  <clipPath>
   <path d="m 98.03125,23.191212 c -41.492132,1.05238 -74.84375,35.06824 -74.84375,76.812498 0,42.40687 34.405632,76.8125 76.8125,76.8125 42.40687,0 76.8125,-34.40563 76.8125,-76.8125 0,-42.406866 -34.40563,-76.812498 -76.8125,-76.812498 -0.662607,0 -1.310145,-0.0167 -1.96875,0 z M 100,50.659962 c 27.24464,0 49.34375,22.099114 49.34375,49.343748 -1e-5,27.24464 -22.09911,49.34375 -49.34375,49.34375 -27.244636,-1e-5 -49.34375,-22.09911 -49.34375,-49.34375 0,-27.244634 22.099114,-49.343748 49.34375,-49.343748 z"/>
  </clipPath>
  <clipPath>
   <path d="m 152,204 a 8,8 0 1 1 -16,0 8,8 0 1 1 16,0 z"/>
  </clipPath>
  <clipPath>
   <path d="m 145,215 c 33.13708,0 60,-26.86292 60,-60 0,-33.13708 -26.86292,-60 -60,-60 -33.13708,0 -60,26.86292 -60,60 0,12.50698 3.8285,24.10633 10.375,33.71875 L 89,211 111.28125,204.625 C 120.89367,211.1715 132.49302,215 145,215 z"/>
  </clipPath>
  <clipPath>
   <rect width="16" x="432" y="116" rx="3" height="16" color="#bebebe"/>
  </clipPath>
  <clipPath>
   <path d="m 144,70 c -49.705627,0 -90,40.29437 -90,90 0,49.70563 40.294373,90 90,90 49.70563,0 90,-40.29437 90,-90 0,-49.70563 -40.29437,-90 -90,-90 z m 0,32.1875 c 32.03251,0 58,25.96748 58,58 0,32.03252 -25.96749,58 -58,58 -32.03251,0 -58,-25.96748 -58,-58 0,-32.03252 25.96749,-58 58,-58 z"/>
  </clipPath>
  <clipPath>
   <rect width="22" x="433" y="77" rx="3" height="22" opacity="0.2" fill="#6d6d6d" color="#bebebe"/>
  </clipPath>
  <clipPath>
   <rect width="30" x="433" y="29" rx="4" height="30" opacity="0.2" fill="#6d6d6d" color="#bebebe"/>
  </clipPath>
  <clipPath>
   <rect width="90" x="307" y="31" rx="18.75" height="90" fill="url(#1)" color="#bebebe"/>
  </clipPath>
  <clipPath>
   <rect width="60" x="306" y="142" rx="12.5" height="60" transform="matrix(0 -1 1 0 0 0)" fill="url(#0)" color="#bebebe"/>
  </clipPath>
  <clipPath>
   <rect width="30" x="433" y="29" rx="6" height="30" color="#bebebe"/>
  </clipPath>
  <clipPath>
   <rect width="22" x="433" y="77" rx="5" height="22" color="#bebebe"/>
  </clipPath>
  <clipPath>
   <rect width="22" x="433" y="77" rx="4" height="22" color="#bebebe"/>
  </clipPath>
  <clipPath>
   <rect width="20" x="434" y="78" rx="4" height="20" color="#bebebe"/>
  </clipPath>
  <linearGradient gradientTransform="matrix(-1 0 0 -1 289 315)" xlink:href="#2" y1="40" y2="276" x1="265" x2="264" gradientUnits="userSpaceOnUse"/>
  <linearGradient gradientTransform="matrix(.25 0 0 .25 299.99999 131.99999)" id="0" xlink:href="#2" y1="230" y2="90" x2="0" gradientUnits="userSpaceOnUse"/>
  <linearGradient gradientTransform="matrix(.375 0 0 .375 298 16)" id="1" xlink:href="#2" y1="230" y2="90" x2="0" gradientUnits="userSpaceOnUse"/>
  <linearGradient id="2">
   <stop stop-color="#151515"/>
   <stop offset="1" stop-color="#222"/>
  </linearGradient>
  <linearGradient gradientTransform="matrix(.175 0 0 .175 302.79999 215.99997)" id="3" xlink:href="#2" y1="280" y2="40" x2="0" gradientUnits="userSpaceOnUse"/>
  <linearGradient xlink:href="#5" id="4" y1="46.752" x2="0" y2="-24.433" gradientUnits="userSpaceOnUse"/>
  <linearGradient id="5">
   <stop stop-color="#cfcfcf"/>
   <stop offset="1" stop-color="#dadada"/>
  </linearGradient>
 </defs>
 <g transform="translate(0,-1004.3622)">
  <path d="M 24 0 C 10.745166 9.4739031e-15 7.4559567e-17 10.745166 0 24 C -2.3684758e-15 37.254834 10.745166 48 24 48 C 37.254834 48 48 37.254834 48 24 C 48 10.745166 37.254834 -7.0308678e-15 24 0 z M 24 0.5 C 36.978692 0.5 47.5 11.021308 47.5 24 C 47.5 36.978692 36.978692 47.5 24 47.5 C 11.021308 47.5 0.5 36.978692 0.5 24 C 0.5 11.021308 11.021308 0.5 24 0.5 z " transform="translate(0,1004.3622)" opacity="0.1"/>
  <path d="M 24 0.5 C 11.021308 0.5 0.5 11.021308 0.5 24 C 0.5 36.978692 11.021308 47.5 24 47.5 C 36.978692 47.5 47.5 36.978692 47.5 24 C 47.5 11.021308 36.978692 0.5 24 0.5 z M 24 0.75 C 36.84062 0.75 47.25 11.15938 47.25 24 C 47.25 36.84062 36.84062 47.25 24 47.25 C 11.15938 47.25 0.75 36.84062 0.75 24 C 0.75 11.15938 11.15938 0.75 24 0.75 z " transform="translate(0,1004.3622)" opacity="0.2"/>
  <path transform="matrix(0.84640163,0,0,0.66742686,29.844972,1021.4193)" d="m 20.563557,10.402453 c 0,19.238993 -12.2983925,34.835278 -27.4692286,34.835278 -15.1708364,0 -27.4692284,-15.596285 -27.4692284,-34.835278 0,-19.2389921 12.298392,-34.835277 27.4692284,-34.835277 15.1708361,0 27.4692286,15.5962849 27.4692286,34.835277 z" opacity="0.4"/>
  <path d="m 20.563557,10.402453 c 0,19.238993 -12.2983925,34.835278 -27.4692286,34.835278 -15.1708364,0 -27.4692284,-15.596285 -27.4692284,-34.835278 0,-19.2389921 12.298392,-34.835277 27.4692284,-34.835277 15.1708361,0 27.4692286,15.5962849 27.4692286,34.835277 z" transform="matrix(0.83730054,0,0,0.66025023,29.782123,1021.494)" fill="url(#4)"/>
  <rect ry="1.333" rx="1.25" y="1016.36" x="7" height="8" width="10" fill="#cc0000"/>
  <rect width="8" height="6" x="8" y="1017.36" rx="1" fill="#acacac"/>
  <rect rx="1" y="1017.36" x="20" height="6" width="8" fill="#acacac"/>
  <rect width="8" height="6" x="32" y="1017.36" rx="1" fill="#acacac"/>
  <rect width="16" height="8" x="9" y="1025.36" rx="1.143" ry="1.333" fill="#cc0000"/>
  <rect rx="1" y="1026.36" x="10" height="6" width="14" fill="#acacac"/>
  <rect ry="1.333" rx="1.25" y="1025.36" x="27" height="8" width="10" fill="#4b9ef7"/>
  <rect width="8" height="6" x="28" y="1026.36" rx="1" fill="#acacac"/>
  <rect rx="1" y="1035.36" x="8" height="6" width="8" fill="#acacac"/>
  <rect width="8" height="6" x="20" y="1035.36" rx="1" fill="#acacac"/>
  <rect width="10" height="8" x="31" y="1034.36" rx="1.25" ry="1.333" fill="#4b9ef7"/>
  <rect rx="1" y="1035.36" x="32" height="6" width="8" fill="#acacac"/>
  <path d="M 9 13 C 8.446 13 8 13.446 8 14 L 8 15 C 8 14.446 8.446 14 9 14 L 15 14 C 15.554 14 16 14.446 16 15 L 16 14 C 16 13.446 15.554 13 15 13 L 9 13 z " transform="translate(0,1004.3622)" fill="#8a8a8a"/>
  <path d="m 21,1017.3622 c -0.554,0 -1,0.446 -1,1 l 0,1 c 0,-0.554 0.446,-1 1,-1 l 6,0 c 0.554,0 1,0.446 1,1 l 0,-1 c 0,-0.554 -0.446,-1 -1,-1 l -6,0 z" fill="#8a8a8a"/>
  <path d="m 33,1017.3622 c -0.554,0 -1,0.446 -1,1 l 0,1 c 0,-0.554 0.446,-1 1,-1 l 6,0 c 0.554,0 1,0.446 1,1 l 0,-1 c 0,-0.554 -0.446,-1 -1,-1 l -6,0 z" fill="#8a8a8a"/>
  <path d="m 29,1026.3622 c -0.554,0 -1,0.446 -1,1 l 0,1 c 0,-0.554 0.446,-1 1,-1 l 6,0 c 0.554,0 1,0.446 1,1 l 0,-1 c 0,-0.554 -0.446,-1 -1,-1 l -6,0 z" fill="#8a8a8a"/>
  <path d="m 33,1035.3622 c -0.554,0 -1,0.446 -1,1 l 0,1 c 0,-0.554 0.446,-1 1,-1 l 6,0 c 0.554,0 1,0.446 1,1 l 0,-1 c 0,-0.554 -0.446,-1 -1,-1 l -6,0 z" fill="#8a8a8a"/>
  <path d="m 21,1035.3622 c -0.554,0 -1,0.446 -1,1 l 0,1 c 0,-0.554 0.446,-1 1,-1 l 6,0 c 0.554,0 1,0.446 1,1 l 0,-1 c 0,-0.554 -0.446,-1 -1,-1 l -6,0 z" fill="#8a8a8a"/>
  <path d="m 9,1035.3622 c -0.554,0 -1,0.446 -1,1 l 0,1 c 0,-0.554 0.446,-1 1,-1 l 6,0 c 0.554,0 1,0.446 1,1 l 0,-1 c 0,-0.554 -0.446,-1 -1,-1 l -6,0 z" fill="#8a8a8a"/>
  <path d="m 11,1026.3622 c -0.554,0 -1,0.446 -1,1 l 0,1 c 0,-0.554 0.446,-1 1,-1 l 12,0 c 0.554,0 1,0.446 1,1 l 0,-1 c 0,-0.554 -0.446,-1 -1,-1 l -12,0 z" fill="#8a8a8a"/>
  <path d="m 8,1021.3622 -3,0 0,7 5,0 0,1 -6,0 0,-9 4,0 z" fill="#cc0000"/>
  <path d="m 40.5,1038.3622 1.5,0 0,-9 -6,0 0,-1 7,0 0,11 -2.5,0 z" fill="#4b9ef7"/>
 </g>
</svg>

<?xml version="1.0" encoding="UTF-8" standalone="no"?>
<svg
   xmlns:dc="http://purl.org/dc/elements/1.1/"
   xmlns:cc="http://creativecommons.org/ns#"
   xmlns:rdf="http://www.w3.org/1999/02/22-rdf-syntax-ns#"
   xmlns:svg="http://www.w3.org/2000/svg"
   xmlns="http://www.w3.org/2000/svg"
   xmlns:xlink="http://www.w3.org/1999/xlink"
   xmlns:sodipodi="http://sodipodi.sourceforge.net/DTD/sodipodi-0.dtd"
   xmlns:inkscape="http://www.inkscape.org/namespaces/inkscape"
   width="48"
   viewBox="0 0 13.546667 13.546667"
   height="48"
   id="svg2"
   version="1.1"
   inkscape:version="0.48.4 r9939"
   sodipodi:docname="app-launcher.svg">
  <metadata
     id="metadata28">
    <rdf:RDF>
      <cc:Work
         rdf:about="">
        <dc:format>image/svg+xml</dc:format>
        <dc:type
           rdf:resource="http://purl.org/dc/dcmitype/StillImage" />
        <dc:title></dc:title>
      </cc:Work>
    </rdf:RDF>
  </metadata>
  <sodipodi:namedview
     pagecolor="#333333"
     bordercolor="#666666"
     borderopacity="1"
     objecttolerance="10"
     gridtolerance="10"
     guidetolerance="10"
     inkscape:pageopacity="1"
     inkscape:pageshadow="2"
     inkscape:window-width="1920"
     inkscape:window-height="1143"
     id="namedview26"
     showgrid="false"
     inkscape:zoom="11.081706"
     inkscape:cx="24.767736"
     inkscape:cy="23.819522"
     inkscape:window-x="0"
     inkscape:window-y="29"
     inkscape:window-maximized="1"
     inkscape:current-layer="svg2" />
  <defs
     id="defs4">
    <linearGradient
       id="linearGradient4460">
      <stop
         offset="0"
         style="stop-color:#d7d7d7;stop-opacity:1;"
         id="stop7" />
      <stop
         offset="1"
         style="stop-color:#f1f1f1;stop-opacity:1;"
         id="stop9" />
    </linearGradient>
    <linearGradient
       gradientTransform="matrix(1.09524,0,0,1.09524,-133.00183,-293.02198)"
       xlink:href="#linearGradient4460"
       id="linearGradient3102"
       y1="279.096"
       y2="268.33"
       gradientUnits="userSpaceOnUse"
       x2="0" />
    <linearGradient
       inkscape:collect="always"
       xlink:href="#linearGradient4460"
       id="linearGradient3006"
       gradientUnits="userSpaceOnUse"
       gradientTransform="matrix(1.09524,0,0,1.09524,-133.00183,-293.02198)"
       y1="279.096"
       x2="0"
       y2="268.33" />
  </defs>
  <rect
     id="rect14"
     style="opacity:0.5;fill:#ffffff;fill-rule:evenodd"
     height="12.982"
     rx="0.2"
     y="0.28299999"
     x="0.28200001"
     width="12.982" />
  <rect
     id="rect16"
     style="fill:url(#linearGradient3006);fill-rule:evenodd"
     height="11.746"
     rx="0.2"
     y="0.90100002"
     x="0.89999998"
     width="11.746" />
  <g
     transform="matrix(0.28222223,0,0,0.28222223,1.8333333e-7,-283.45333)"
     id="g3518">
    <rect
       style="fill:#cc0000;fill-opacity:1;stroke:none"
       id="rect4341"
       width="10"
       height="8"
       x="7"
       y="1016.3622"
       rx="1.25"
       ry="1.3333334" />
    <rect
       ry="1"
       rx="1"
       y="1017.3622"
       x="8"
       height="6"
       width="8"
       id="rect4233"
       style="fill:#acacac;fill-opacity:1;stroke:none" />
    <rect
       style="fill:#acacac;fill-opacity:1;stroke:none"
       id="rect4235"
       width="8"
       height="6"
       x="20"
       y="1017.3622"
       rx="1"
       ry="1" />
    <rect
       ry="1"
       rx="1"
       y="1017.3622"
       x="32"
       height="6"
       width="8"
       id="rect4237"
       style="fill:#acacac;fill-opacity:1;stroke:none" />
    <rect
       ry="1.3333333"
       rx="1.1428571"
       y="1025.3622"
       x="9"
       height="8"
       width="16"
       id="rect4339"
       style="fill:#cc0000;fill-opacity:1;stroke:none" />
    <rect
       style="fill:#acacac;fill-opacity:1;stroke:none"
       id="rect4239"
       width="14"
       height="6"
       x="10"
       y="1026.3622"
       rx="1"
       ry="1" />
    <rect
       style="fill:#4b9ef7;fill-opacity:1;stroke:none"
       id="rect4343"
       width="10"
       height="8"
       x="27"
       y="1025.3622"
       rx="1.25"
       ry="1.3333334" />
    <rect
       ry="1"
       rx="1"
       y="1026.3622"
       x="28"
       height="6"
       width="8"
       id="rect4241"
       style="fill:#acacac;fill-opacity:1;stroke:none" />
    <rect
       style="fill:#acacac;fill-opacity:1;stroke:none"
       id="rect4243"
       width="8"
       height="6"
       x="8"
       y="1035.3622"
       rx="1"
       ry="1" />
    <rect
       ry="1"
       rx="1"
       y="1035.3622"
       x="20"
       height="6"
       width="8"
       id="rect4245"
       style="fill:#acacac;fill-opacity:1;stroke:none" />
    <rect
       ry="1.3333334"
       rx="1.25"
       y="1034.3622"
       x="31"
       height="8"
       width="10"
       id="rect4345"
       style="fill:#4b9ef7;fill-opacity:1;stroke:none" />
    <rect
       style="fill:#acacac;fill-opacity:1;stroke:none"
       id="rect4247"
       width="8"
       height="6"
       x="32"
       y="1035.3622"
       rx="1"
       ry="1" />
    <path
       inkscape:connector-curvature="0"
       id="rect4251"
       transform="translate(0,1004.3622)"
       d="m 9,13 c -0.554,0 -1,0.446 -1,1 l 0,1 c 0,-0.554 0.446,-1 1,-1 l 6,0 c 0.554,0 1,0.446 1,1 l 0,-1 c 0,-0.554 -0.446,-1 -1,-1 l -6,0 z"
       style="fill:#8a8a8a;fill-opacity:1;stroke:none" />
    <path
       inkscape:connector-curvature="0"
       style="fill:#8a8a8a;fill-opacity:1;stroke:none"
       d="m 21,1017.3622 c -0.554,0 -1,0.446 -1,1 l 0,1 c 0,-0.554 0.446,-1 1,-1 l 6,0 c 0.554,0 1,0.446 1,1 l 0,-1 c 0,-0.554 -0.446,-1 -1,-1 l -6,0 z"
       id="path4254" />
    <path
       id="path4256"
       d="m 33,1017.3622 c -0.554,0 -1,0.446 -1,1 l 0,1 c 0,-0.554 0.446,-1 1,-1 l 6,0 c 0.554,0 1,0.446 1,1 l 0,-1 c 0,-0.554 -0.446,-1 -1,-1 l -6,0 z"
       style="fill:#8a8a8a;fill-opacity:1;stroke:none"
       inkscape:connector-curvature="0" />
    <path
       inkscape:connector-curvature="0"
       style="fill:#8a8a8a;fill-opacity:1;stroke:none"
       d="m 29,1026.3622 c -0.554,0 -1,0.446 -1,1 l 0,1 c 0,-0.554 0.446,-1 1,-1 l 6,0 c 0.554,0 1,0.446 1,1 l 0,-1 c 0,-0.554 -0.446,-1 -1,-1 l -6,0 z"
       id="path4258" />
    <path
       id="path4260"
       d="m 33,1035.3622 c -0.554,0 -1,0.446 -1,1 l 0,1 c 0,-0.554 0.446,-1 1,-1 l 6,0 c 0.554,0 1,0.446 1,1 l 0,-1 c 0,-0.554 -0.446,-1 -1,-1 l -6,0 z"
       style="fill:#8a8a8a;fill-opacity:1;stroke:none"
       inkscape:connector-curvature="0" />
    <path
       inkscape:connector-curvature="0"
       style="fill:#8a8a8a;fill-opacity:1;stroke:none"
       d="m 21,1035.3622 c -0.554,0 -1,0.446 -1,1 l 0,1 c 0,-0.554 0.446,-1 1,-1 l 6,0 c 0.554,0 1,0.446 1,1 l 0,-1 c 0,-0.554 -0.446,-1 -1,-1 l -6,0 z"
       id="path4262" />
    <path
       id="path4264"
       d="m 9,1035.3622 c -0.554,0 -1,0.446 -1,1 l 0,1 c 0,-0.554 0.446,-1 1,-1 l 6,0 c 0.554,0 1,0.446 1,1 l 0,-1 c 0,-0.554 -0.446,-1 -1,-1 l -6,0 z"
       style="fill:#8a8a8a;fill-opacity:1;stroke:none"
       inkscape:connector-curvature="0" />
    <path
       inkscape:connector-curvature="0"
       id="rect4268"
       d="m 11,1026.3622 c -0.554,0 -1,0.446 -1,1 l 0,1 c 0,-0.554 0.446,-1 1,-1 l 12,0 c 0.554,0 1,0.446 1,1 l 0,-1 c 0,-0.554 -0.446,-1 -1,-1 l -12,0 z"
       style="fill:#8a8a8a;fill-opacity:1;stroke:none" />
    <path
       sodipodi:nodetypes="ccccccccc"
       inkscape:connector-curvature="0"
       id="path4279"
       d="m 8,1021.3622 -3,0 0,7 5,0 0,1 -6,0 0,-9 4,0 z"
       style="fill:#cc0000;fill-opacity:1;stroke:none" />
    <path
       style="fill:#4b9ef7;fill-opacity:1;stroke:none"
       d="m 40.5,1038.3622 1.5,0 0,-9 -6,0 0,-1 7,0 0,11 -2.5,0 z"
       id="path4281"
       inkscape:connector-curvature="0"
       sodipodi:nodetypes="ccccccccc" />
  </g>
</svg>
